X:1
T:The Fairy's Love Song
T:Cutting Bracken | Tha Mi Sgìth (I Am Tired)
C:Anonymous; arr. T. S. Macdonald
M:C
L:1/4
K:Am
%%staves { 1 2 }
V:1
A > A a2 | g > e g2 | e > d B > A | G > A B < G |
A > A a2 | g > e g2 | e > d B < e | A2 A2 :|
|: e > d B > A | G > A B < G | e > d B > A | B2 d2 |
e > d B > A | G > A B < d | e > d B < e | A2 A2 :|]
V:2
L:1/1
"1"A, | "0"G, | "2"B, | "0"G, |
"1"A, | "0"G, | "2"B, | "1"A, :|
|:"1"A, | "0"G, | "1"A, | "0"G, |
"1"A, | "0"G, | "2"B, | "1"A, :|]

